X:1
T:Title
%%score { 1 | ( 2 3 ) }
L:1/8
M:6/8
K:C
V:1 treble nm="Grand Piano"
V:2 bass 
V:3 bass 
V:1
 z3 z2[Q:1/4=90] E | EF[A,_E^F] [=EG]2 [EG] | GAB [Ec]2 [Gc] | [Ac]2 [Ac] [GB]2 [FA] | %4
[M:5/8] [EG]-[EG]- [EG]3 |[M:1/8] [EG] |[M:3/4] BA G D2 _E | E2 [FG] [Ec]2 [Ge] | %8
 [Gd]2 [GB] [^FB]2 [FA] |[M:5/8] G-G- G3 |[M:1/8] G |[M:3/4] [Ec]2 [Ec] [Ec]2 [CE] | %12
 [FG]2 [FG] G2 G | BA G D2 A |[M:5/8] G-G- G3 |[M:1/8] [FG] |[M:3/4] [Ec]2 [Ec] [FB]2 [Gd] | %17
[M:7/8] [Gc]2 [EG] A3 c |[M:3/4] G2 A [B,E]2 [B,D] |[M:5/8] [G,C]-[G,C]- [G,C]3 |] %20
V:2
 z3 z2 [C,G,C] | .C3 z3 | [G,B,F]2 [G,DF][K:bass] [C,C]2 [E,C] | [F,C]2 [F,C] [F,C]2 [F,C] | %4
[M:5/8] [C,C]-[C,C]- [C,C]3 |[M:1/8] [C,C] | %6
[M:3/4][K:treble] [G,DF]2 [G,B,F][K:bass] [F,G,B,]2 [F,G,B,] | [E,G,C]2 [D,G,] [C,G,]2 [C,C] | %8
 [D,B,]2 [D,D] [D,D]2 [D,C] |[M:5/8] [G,B,]-[G,B,]- [G,B,]3 |[M:1/8] [G,B,F] | %11
[M:3/4] [C,G,]2 [C,G,] [C,G,]2 [C,G,] | [D,B,]2 [D,B,][K:treble] [G,B,F]2 [G,B,F] | %13
 .D2 z2[K:bass] z2 |[M:5/8] [E,G,C]-[E,G,C]- [E,G,C]3 |[M:1/8] [D,G,] | %16
[M:3/4] [C,G,]2 [C,G,] [D,G,]2 [F,B,] |[M:7/8] [E,C]2 [C,C] [F,CF]3 [F,A,F] | %18
[M:3/4] [G,CE]2 [G,CE] [G,,G,]2 [G,,F,] |[M:5/8] [C,E,]-[C,E,]- [C,E,]3 |] %20
V:3
 x6 | [C,G,]-[C,G,D]C, [C,C]2 [C,C] | x3[K:bass] x3 | x6 |[M:5/8] x5 |[M:1/8] x | %6
[M:3/4][K:treble] x3[K:bass] x3 | x6 | x6 |[M:5/8] x5 |[M:1/8] x |[M:3/4] x6 | x3[K:treble] x3 | %13
 [G,F]-[G,CF] [G,B,F][K:bass] [F,G,B,]2 [F,G,B,] |[M:5/8] x5 |[M:1/8] x |[M:3/4] x6 |[M:7/8] x7 | %18
[M:3/4] x6 |[M:5/8] x5 |] %20

